Simply-Orange-Circles/scalable/apps/preferences-desktop-display.svg

<?xml version="1.0" encoding="UTF-8" standalone="no"?>
<svg
   xmlns:dc="http://purl.org/dc/elements/1.1/"
   xmlns:cc="http://creativecommons.org/ns#"
   xmlns:rdf="http://www.w3.org/1999/02/22-rdf-syntax-ns#"
   xmlns:svg="http://www.w3.org/2000/svg"
   xmlns="http://www.w3.org/2000/svg"
   xmlns:sodipodi="http://sodipodi.sourceforge.net/DTD/sodipodi-0.dtd"
   xmlns:inkscape="http://www.inkscape.org/namespaces/inkscape"
   width="48"
   height="48"
   viewBox="0 0 12.7 12.7"
   version="1.1"
   id="svg4"
   sodipodi:docname="preferences-desktop-display.svg"
   inkscape:version="0.92.4 (5da689c313, 2019-01-14)">
  <metadata
     id="metadata10">
    <rdf:RDF>
      <cc:Work
         rdf:about="">
        <dc:format>image/svg+xml</dc:format>
        <dc:type
           rdf:resource="http://purl.org/dc/dcmitype/StillImage" />
        <dc:title></dc:title>
      </cc:Work>
    </rdf:RDF>
  </metadata>
  <defs
     id="defs8" />
  <sodipodi:namedview
     pagecolor="#ffffff"
     bordercolor="#666666"
     borderopacity="1"
     objecttolerance="10"
     gridtolerance="10"
     guidetolerance="10"
     inkscape:pageopacity="0"
     inkscape:pageshadow="2"
     inkscape:window-width="1087"
     inkscape:window-height="480"
     id="namedview6"
     showgrid="false"
     inkscape:zoom="4.9166667"
     inkscape:cx="2.1355932"
     inkscape:cy="24"
     inkscape:window-x="0"
     inkscape:window-y="25"
     inkscape:window-maximized="0"
     inkscape:current-layer="svg4" />
  <path
     d="m 6.344,0.073 a 6.29,6.29 0 0 0 -6.29,6.29 6.29,6.29 0 0 0 6.29,6.288 6.29,6.29 0 0 0 6.29,-6.289 6.29,6.29 0 0 0 -6.29,-6.29 z M 6.326,1.009 A 5.407,5.407 0 0 1 11.733,6.416 5.407,5.407 0 0 1 6.326,11.823 5.407,5.407 0 0 1 0.92,6.416 5.407,5.407 0 0 1 6.326,1.01 Z m -3,1.862 c -0.559,0 -1.008,0.458 -1.008,1.026 v 5.134 c 0,0.569 0.45,1.026 1.008,1.026 h 6.048 c 0.559,0 1.008,-0.457 1.008,-1.026 V 3.897 c 0,-0.568 -0.45,-1.026 -1.008,-1.026 z M 3.743,3.445 H 8.98 A 0.87,0.87 0 0 1 9.853,4.318 V 8.682 A 0.87,0.87 0 0 1 8.98,9.554 H 3.743 A 0.87,0.87 0 0 1 2.871,8.682 V 4.318 A 0.87,0.87 0 0 1 3.743,3.445 Z M 5.707,3.881 4.834,5.191 H 5.489 V 6.499 H 4.616 V 5.845 L 3.307,6.718 4.617,7.59 V 6.936 H 5.489 V 7.809 H 4.834 L 5.707,9.118 6.58,7.808 H 5.926 V 6.936 H 8.108 V 7.59 L 9.416,6.718 8.108,5.845 V 6.5 H 5.926 V 5.19 H 6.58 Z"
     id="path2"
     inkscape:connector-curvature="0"
     style="fill:#ff7f2a" />
</svg>

<svg xmlns="http://www.w3.org/2000/svg" width="48" height="48" viewBox="0 0 12.7 12.7"><path fill="#ff7f2a" d="M6.34.07a6.29 6.29 0 0 0-6.29 6.3 6.29 6.29 0 0 0 6.3 6.28 6.29 6.29 0 0 0 6.28-6.29A6.29 6.29 0 0 0 6.34.07zm-.01.94a5.4 5.4 0 0 1 5.4 5.4 5.4 5.4 0 0 1-5.4 5.41 5.4 5.4 0 0 1-5.41-5.4A5.4 5.4 0 0 1 6.32 1zm-3 1.86c-.56 0-1.01.46-1.01 1.03v5.13c0 .57.45 1.03 1 1.03h6.05c.56 0 1.01-.46 1.01-1.03V3.9c0-.57-.45-1.03-1-1.03H3.32zm.41.58h5.24a.87.87 0 0 1 .87.87v4.36a.87.87 0 0 1-.87.87H3.74a.87.87 0 0 1-.87-.87V4.32a.87.87 0 0 1 .87-.88zm1.97.43L4.83 5.2h.66v1.3h-.87v-.64l-1.31.87 1.3.87v-.65h.88v.87h-.66l.88 1.3.87-1.3h-.65v-.87H8.1v.65l1.3-.87-1.3-.87v.65H5.93V5.19h.65l-.87-1.3z"/></svg>
